src/baseIcons/icon-map-my-location.svg

<?xml version="1.0" encoding="UTF-8"?>
<svg  viewBox="0 0 24 24" version="1.1" xmlns="http://www.w3.org/2000/svg" xmlns:xlink="http://www.w3.org/1999/xlink">
    <title>Icons/Basic icons/map-my-location</title>
    <g  id="Icons/Basic-icons/map-my-location" stroke="none" stroke-width="1" fill="none" fill-rule="evenodd">
        <path d="M12,0 C12.553,0 13,0.448 13,1 L13.000666,2.04967726 C17.7177801,2.52047708 21.4800865,6.28308277 21.9504222,11.0003315 L23,11 C23.553,11 24,11.448 24,12 C24,12.552 23.553,13 23,13 L21.9503227,13.000666 C21.4795561,17.7174476 17.7174476,21.4795561 13.000666,21.9503227 L13,23 C13,23.552 12.553,24 12,24 C11.447,24 11,23.552 11,23 L11.0003315,21.9504222 C6.28308277,21.4800865 2.52047708,17.7177801 2.04967726,13.000666 L1,13 C0.447,13 0,12.552 0,12 C0,11.448 0.447,11 1,11 L2.04957775,11.0003315 C2.51994666,6.28275026 6.28275026,2.51994666 11.0003315,2.04957775 L11,1 C11,0.448 11.447,0 12,0 Z M12,4 C7.589,4 4,7.589 4,12 C4,16.411 7.589,20 12,20 C16.411,20 20,16.411 20,12 C20,7.589 16.411,4 12,4 Z M12,7 C14.757,7 17,9.243 17,12 C17,14.757 14.757,17 12,17 C9.243,17 7,14.757 7,12 C7,9.243 9.243,7 12,7 Z M12,9 C10.346,9 9,10.346 9,12 C9,13.654 10.346,15 12,15 C13.654,15 15,13.654 15,12 C15,10.346 13.654,9 12,9 Z"  id="Combined-Shape" fill="#292929"></path>
    </g>
</svg>

<?xml version="1.0" encoding="UTF-8"?>
<svg width="24px" height="24px" viewBox="0 0 24 24" xmlns="http://www.w3.org/2000/svg" fill-rule="evenodd" clip-rule="evenodd" stroke-linejoin="round" stroke-miterlimit="1.41"><path d="M21.95 13A10.02 10.02 0 0 1 13 21.95V23a1 1 0 0 1-1 1 1 1 0 0 1-1-1v-1.05A10.02 10.02 0 0 1 2.05 13H1a1 1 0 0 1-1-1 1 1 0 0 1 1-1h1.05A10.02 10.02 0 0 1 11 2.05V1a1 1 0 0 1 1-1 1 1 0 0 1 1 1v1.05c4.72.47 8.48 4.23 8.95 8.95H23a1 1 0 0 1 1 1 1 1 0 0 1-1 1h-1.05zM12 4a8 8 0 0 0 0 16 8 8 0 0 0 0-16z"/><path d="M12 17a5 5 0 1 1 .01-10.01A5 5 0 0 1 12 17zm0-8a3 3 0 1 0 0 6 3 3 0 0 0 0-6z"/></svg>
